X:2992
T:Snoa
S:Efter Boda Spelmanslag
Z:[[http://www.bluerose.karenlmyers.org/IncipitsSnoa8.html|Karen Myers (#2992)]]
Z:Upptecknad 2/2009
M:4/4
L:1/8
R:Polka/Polkett/Snoa
O:Boda, Dalarna
K:G
GB |: d2 Bd g2 fe | d2 B2 B2 GB | d2 Bd g2 fe | d2 c2 c2 DF |
A2 FA d2 DF | A2 FA d4 | d2 ed cB A2 | B6 GB | d2 Bd g2 fe |
d2 B2 B2 GB | d2 Bd g2 fe | d2 c2 c2 DF | A2 FA d2 DF | A2 FA d4 |
d2 ed cB A2 |1 G6 GB :|2 G4 g2 g2 |: e2 c2 c2 e2 | g2 fg (ag)fe |
d2 B2 G2 e2 | d6 ed | c2 A2 F2 A2 | d4 d3 c | B2 D2 G2 B2 | d4 g2 g2 |
e2 c2 c2 e2 | g2 fg (ag)fe | d2 B2 G2 e2 | d6 ed |
c2 A2 F2 A2 | f2 f2 f3 e | d2 c2 B2 A2 |1 G4 g2 g2 :|2 G6 z2 |]
